!!!OTL: Xiu mudan
!!!ARE: Asia, China,ÿZhejiang, Zhoushan
!! III, 638
!!!SCT: C1626
!!!YEM: Copyright 1995, estate of Helmut Schaffrath.
**kern
*ICvox
*Ivox
*M2/4
*k[]
*C:
{16a
16ee
16ee
16ee
8dd
16cc
16a
=1
8a
8cc
8cc
16r
16a
=2
8.g
16cc
8a
8g
=3
8e
8d
8e
8r}
=4
{8gg
8ee
8dd
16ee
16ee
=5
8a
8ee
16dd
16cc
16a
16g
=6
8e
8cc
8a
8g
=7
8e
8d
8e
8r}
=8
{8ee
8ee
8.dd
16cc
=9
8cc
8cc
8cc
8a
=10
16cc
8.cc
8e
8cc
=11
8d
8f#
8e
8r}
=12
{8.cc
16dd
4ee
=13
8.dd
16a
4cc
=14
8a
8ee
16dd
16cc
16a
16cc
=15
4.g
8e}
=16
{8.g
16a
4cc
=17
8.a
16cc
8g
8e
=18
8.g
16e
16d
16e
16f#
16g
=19
2e
=20
8.d
16e
8c
8B
=21
2A}
=22
{8d
8d
8d
8d
=23
8.g
16d
4e
=24
8a
8a
8a
8a
=25
8.cc
16g
4a}
=26
{8.g
16a
4cc
=27
8.a
16cc
8g
8d
=28
4e
8r}
{16e
16g
=29
8dd
16dd
16ee
8cc
8b
=30
2a
=31
8g
16g
16e
16d
16e
8f#
=32
2e}
=33
{8b
16b
16a
8g
8b
=34
2a
=35
8g
16g
16e
8d
8f#
=36
2e}
==
!!!AGN: Xiaodiao
!!!AMT: simple duple
!!!AIN: vox
!!!EED: Helmut Schaffrath
!!!EEV: 1.0
*-
